website/static/img/icons/fabric.svg

<svg fill="none" height="20" viewBox="0 0 20 20" width="20" xmlns="http://www.w3.org/2000/svg" xmlns:xlink="http://www.w3.org/1999/xlink"><linearGradient id="a" gradientUnits="userSpaceOnUse" x1="4.47496" x2="4.47496" y1="19.9989" y2="12.7276"><stop offset=".056" stop-color="#2aac94"/><stop offset=".155" stop-color="#239c87"/><stop offset=".372" stop-color="#177e71"/><stop offset=".588" stop-color="#0e6961"/><stop offset=".799" stop-color="#095d57"/><stop offset="1" stop-color="#085954"/></linearGradient><linearGradient id="b" gradientUnits="userSpaceOnUse" x1="13.6638" x2="6.64248" y1="14.7236" y2="7.08646"><stop offset=".042" stop-color="#abe88e"/><stop offset=".549" stop-color="#2aaa92"/><stop offset=".906" stop-color="#117865"/></linearGradient><linearGradient id="c" gradientUnits="userSpaceOnUse" x1="-3.59087" x2="3.09038" y1="14.3521" y2="12.0731"><stop offset="0" stop-color="#6ad6f9"/><stop offset="1" stop-color="#6ad6f9" stop-opacity="0"/></linearGradient><linearGradient id="d" gradientUnits="userSpaceOnUse" x1="1.50582" x2="19.292" y1="5.61052" y2="5.61052"><stop offset=".043" stop-color="#25ffd4"/><stop offset=".874" stop-color="#55ddb9"/></linearGradient><linearGradient id="e" gradientUnits="userSpaceOnUse" x1="1.50582" x2="17.5288" y1="3.12434" y2="10.5643"><stop offset="0" stop-color="#6ad6f9"/><stop offset=".23" stop-color="#60e9d0"/><stop offset=".651" stop-color="#6de9bb"/><stop offset=".994" stop-color="#abe88e"/></linearGradient><linearGradient id="f"><stop offset="0" stop-color="#fff" stop-opacity="0"/><stop offset=".459" stop-color="#fff"/><stop offset="1" stop-color="#fff" stop-opacity="0"/></linearGradient><linearGradient id="g" gradientUnits="userSpaceOnUse" x1="2.98896" x2="11.7006" xlink:href="#f" y1="4.51603" y2="6.44353"/><linearGradient id="h" gradientUnits="userSpaceOnUse" x1="5.87662" x2="6.08237" y1="11.9788" y2="5.86911"><stop offset=".205" stop-color="#063d3b" stop-opacity="0"/><stop offset=".586" stop-color="#063d3b" stop-opacity=".237"/><stop offset=".872" stop-color="#063d3b" stop-opacity=".75"/></linearGradient><linearGradient id="i" gradientUnits="userSpaceOnUse" x1="-.596021" x2="6.84966" xlink:href="#f" y1="11.3716" y2="12.7718"/><linearGradient id="j" gradientUnits="userSpaceOnUse" x1="4.78216" x2="3.33046" y1="17.9842" y2="10.8815"><stop offset=".064" stop-color="#063d3b" stop-opacity="0"/><stop offset=".17" stop-color="#063d3b" stop-opacity=".135"/><stop offset=".562" stop-color="#063d3b" stop-opacity=".599"/><stop offset=".85" stop-color="#063d3b" stop-opacity=".9"/><stop offset="1" stop-color="#063d3b"/></linearGradient><path clip-rule="evenodd" d="m.819991 13.7992-.292912 1.0716c-.110021.343-.262906.8473-.34435 1.2946-.1518364.4012-.2099588.8318-.1699273 1.2589s.1771573.8394.4009033 1.2055c.223745.366.52819.676.890075.9064.36189.2303.77164.3749 1.19795.4227.39579.0572.84302.0558 1.34454-.0185l2.30758-.3187c.58011-.08 1.05591-.4986 1.21022-1.063l1.58601-5.8297z" fill="url(#a)" fill-rule="evenodd"/><path d="m3.06895 14.0749c-2.430454.3772-2.929118 2.2118-2.929118 2.2118l2.327578-8.55584 12.16509-1.64602-1.6588 6.02546c-.0858.3229-.3572.5715-.6945.6229l-.0671.01-9.21173 1.3431.06858-.0128z" fill="url(#b)"/><path d="m3.06895 14.0749c-2.430454.3772-2.929118 2.2118-2.929118 2.2118l2.327578-8.55584 12.16509-1.64602-1.6588 6.02546c-.0858.3229-.3572.5715-.6945.6229l-.0671.01-9.21173 1.3431.06858-.0128z" fill="url(#c)" fill-opacity=".8"/><path d="m4.44923 8.6168 13.46677-1.98895c.1557-.02189.3014-.08912.419-.1933.1177-.10418.202-.2407.2426-.39252l1.3903-5.02951c.0355-.126871.0391-.260573.0103-.389157-.0287-.128584-.0889-.24804-.1751-.347687s-.1957-.1763776-.3188-.2233312c-.1231-.04695354-.2559-.0626661-.3866-.04573247l-12.84956 1.90035767c-.67985.10991-1.31377.41294-1.82625.87298s-.88191 1.0577-1.06429 1.72179l-1.85321 6.71556c.3715-1.35741.60155-2.17757 2.94484-2.6005z" fill="url(#d)"/><path d="m4.44923 8.6168 13.46677-1.98895c.1557-.02189.3014-.08912.419-.1933.1177-.10418.202-.2407.2426-.39252l1.3903-5.02951c.0355-.126871.0391-.260573.0103-.389157-.0287-.128584-.0889-.24804-.1751-.347687s-.1957-.1763776-.3188-.2233312c-.1231-.04695354-.2559-.0626661-.3866-.04573247l-12.84956 1.90035767c-.67985.10991-1.31377.41294-1.82625.87298s-.88191 1.0577-1.06429 1.72179l-1.85321 6.71556c.3715-1.35741.60155-2.17757 2.94484-2.6005z" fill="url(#e)"/><path d="m4.44923 8.6168 13.46677-1.98895c.1557-.02189.3014-.08912.419-.1933.1177-.10418.202-.2407.2426-.39252l1.3903-5.02951c.0355-.126871.0391-.260573.0103-.389157-.0287-.128584-.0889-.24804-.1751-.347687s-.1957-.1763776-.3188-.2233312c-.1231-.04695354-.2559-.0626661-.3866-.04573247l-12.84956 1.90035767c-.67985.10991-1.31377.41294-1.82625.87298s-.88191 1.0577-1.06429 1.72179l-1.85321 6.71556c.3715-1.35741.60155-2.17757 2.94484-2.6005z" fill="url(#g)" fill-opacity=".4"/><path d="m4.44921 8.61677c-1.95037.35435-2.43474.98161-2.75766 1.96613l-1.551718 5.7039s.495807-1.8146 2.897688-2.2033l9.17458-1.3374.0686-.0114c.1633-.0254.3157-.0976.4387-.2079.1231-.1104.2114-.2541.2543-.4137l1.3645-4.95661z" fill="url(#h)"/><path d="m4.44921 8.61677c-1.95037.35435-2.43474.98161-2.75766 1.96613l-1.551718 5.7039s.495807-1.8146 2.897688-2.2033l9.17458-1.3374.0686-.0114c.1633-.0254.3157-.0976.4387-.2079.1231-.1104.2114-.2541.2543-.4137l1.3645-4.95661z" fill="url(#i)" fill-opacity=".2"/><path clip-rule="evenodd" d="m3.03755 14.0835c-2.02895.3286-2.69622 1.6717-2.854821 2.0818-.1521045.4013-.2104365.8321-.1705363 1.2594.0399001.4273.1769753.8398.4007473 1.206.223771.3662.528313.6764.89034.9068.36203.2305.77196.3751 1.19845.4228.39579.0572.84302.0543 1.34454-.02l2.30758-.3186c.58011-.08 1.05591-.4987 1.21022-1.0631l1.44599-5.3153z" fill="url(#j)" fill-rule="evenodd"/></svg>

<svg width="20" height="20" viewBox="0 0 20 20" fill="none" xmlns="http://www.w3.org/2000/svg">
<path fill-rule="evenodd" clip-rule="evenodd" d="M0.819991 13.7992L0.527079 14.8708C0.417058 15.2138 0.264173 15.7181 0.182729 16.1654C0.0308926 16.5666 -0.0272298 16.9972 0.0128017 17.4243C0.0528332 17.8514 0.189959 18.2637 0.413705 18.6298C0.63745 18.9958 0.941895 19.3058 1.30378 19.5362C1.66567 19.7665 2.07542 19.9111 2.50173 19.9589C2.89752 20.0161 3.34475 20.0147 3.84627 19.9404L6.15385 19.6217C6.73396 19.5417 7.20976 19.1231 7.36407 18.5587L8.95008 12.729L0.819991 13.7992Z" fill="url(#paint0_linear_22108_4541)"/>
<path d="M3.06895 14.0749C0.638496 14.4521 0.139832 16.2867 0.139832 16.2867L2.46741 7.73086L14.6325 6.08484L12.9737 12.1103C12.8879 12.4332 12.6165 12.6818 12.2792 12.7332L12.2121 12.7432L3.00037 14.0863L3.06895 14.0735V14.0749Z" fill="url(#paint1_linear_22108_4541)"/>
<path d="M3.06895 14.0749C0.638496 14.4521 0.139832 16.2867 0.139832 16.2867L2.46741 7.73086L14.6325 6.08484L12.9737 12.1103C12.8879 12.4332 12.6165 12.6818 12.2792 12.7332L12.2121 12.7432L3.00037 14.0863L3.06895 14.0735V14.0749Z" fill="url(#paint2_linear_22108_4541)" fill-opacity="0.8"/>
<path d="M4.44923 8.6168L17.916 6.62785C18.0717 6.60596 18.2174 6.53873 18.335 6.43455C18.4527 6.33037 18.537 6.19385 18.5776 6.04203L19.9679 1.01252C20.0034 0.885649 20.007 0.751947 19.9782 0.623363C19.9495 0.494779 19.8893 0.375323 19.8031 0.275676C19.7169 0.176029 19.6074 0.0992984 19.4843 0.0523448C19.3612 0.00539126 19.2284 -0.0103213 19.0977 0.00661233L6.24814 1.90697C5.56829 2.01688 4.93437 2.31991 4.42189 2.77995C3.90941 3.23999 3.53998 3.83765 3.3576 4.50174L1.50439 11.2173C1.87589 9.85989 2.10594 9.03973 4.44923 8.6168Z" fill="url(#paint3_linear_22108_4541)"/>
<path d="M4.44923 8.6168L17.916 6.62785C18.0717 6.60596 18.2174 6.53873 18.335 6.43455C18.4527 6.33037 18.537 6.19385 18.5776 6.04203L19.9679 1.01252C20.0034 0.885649 20.007 0.751947 19.9782 0.623363C19.9495 0.494779 19.8893 0.375323 19.8031 0.275676C19.7169 0.176029 19.6074 0.0992984 19.4843 0.0523448C19.3612 0.00539126 19.2284 -0.0103213 19.0977 0.00661233L6.24814 1.90697C5.56829 2.01688 4.93437 2.31991 4.42189 2.77995C3.90941 3.23999 3.53998 3.83765 3.3576 4.50174L1.50439 11.2173C1.87589 9.85989 2.10594 9.03973 4.44923 8.6168Z" fill="url(#paint4_linear_22108_4541)"/>
<path d="M4.44923 8.6168L17.916 6.62785C18.0717 6.60596 18.2174 6.53873 18.335 6.43455C18.4527 6.33037 18.537 6.19385 18.5776 6.04203L19.9679 1.01252C20.0034 0.885649 20.007 0.751947 19.9782 0.623363C19.9495 0.494779 19.8893 0.375323 19.8031 0.275676C19.7169 0.176029 19.6074 0.0992984 19.4843 0.0523448C19.3612 0.00539126 19.2284 -0.0103213 19.0977 0.00661233L6.24814 1.90697C5.56829 2.01688 4.93437 2.31991 4.42189 2.77995C3.90941 3.23999 3.53998 3.83765 3.3576 4.50174L1.50439 11.2173C1.87589 9.85989 2.10594 9.03973 4.44923 8.6168Z" fill="url(#paint5_linear_22108_4541)" fill-opacity="0.4"/>
<path d="M4.44921 8.61677C2.49884 8.97112 2.01447 9.59838 1.69155 10.5829L0.139832 16.2868C0.139832 16.2868 0.635639 14.4722 3.03752 14.0835L12.2121 12.7461L12.2807 12.7347C12.444 12.7093 12.5964 12.6371 12.7194 12.5268C12.8425 12.4164 12.9308 12.2727 12.9737 12.1131L14.3382 7.15649L4.44921 8.61677Z" fill="url(#paint6_linear_22108_4541)"/>
<path d="M4.44921 8.61677C2.49884 8.97112 2.01447 9.59838 1.69155 10.5829L0.139832 16.2868C0.139832 16.2868 0.635639 14.4722 3.03752 14.0835L12.2121 12.7461L12.2807 12.7347C12.444 12.7093 12.5964 12.6371 12.7194 12.5268C12.8425 12.4164 12.9308 12.2727 12.9737 12.1131L14.3382 7.15649L4.44921 8.61677Z" fill="url(#paint7_linear_22108_4541)" fill-opacity="0.2"/>
<path fill-rule="evenodd" clip-rule="evenodd" d="M3.03755 14.0835C1.0086 14.4121 0.34133 15.7552 0.182729 16.1653C0.0306245 16.5666 -0.0277075 16.9974 0.0121927 17.4247C0.0520928 17.852 0.189168 18.2645 0.41294 18.6307C0.636711 18.9969 0.941253 19.3071 1.30328 19.5375C1.66531 19.768 2.07524 19.9126 2.50173 19.9603C2.89752 20.0175 3.34475 20.0146 3.84627 19.9403L6.15385 19.6217C6.73396 19.5417 7.20976 19.123 7.36407 18.5586L8.81006 13.2433L3.03755 14.0835Z" fill="url(#paint8_linear_22108_4541)"/>
<defs>
<linearGradient id="paint0_linear_22108_4541" x1="4.47496" y1="19.9989" x2="4.47496" y2="12.7276" gradientUnits="userSpaceOnUse">
<stop offset="0.056" stop-color="#2AAC94"/>
<stop offset="0.155" stop-color="#239C87"/>
<stop offset="0.372" stop-color="#177E71"/>
<stop offset="0.588" stop-color="#0E6961"/>
<stop offset="0.799" stop-color="#095D57"/>
<stop offset="1" stop-color="#085954"/>
</linearGradient>
<linearGradient id="paint1_linear_22108_4541" x1="13.6638" y1="14.7236" x2="6.64248" y2="7.08646" gradientUnits="userSpaceOnUse">
<stop offset="0.042" stop-color="#ABE88E"/>
<stop offset="0.549" stop-color="#2AAA92"/>
<stop offset="0.906" stop-color="#117865"/>
</linearGradient>
<linearGradient id="paint2_linear_22108_4541" x1="-3.59087" y1="14.3521" x2="3.09038" y2="12.0731" gradientUnits="userSpaceOnUse">
<stop stop-color="#6AD6F9"/>
<stop offset="1" stop-color="#6AD6F9" stop-opacity="0"/>
</linearGradient>
<linearGradient id="paint3_linear_22108_4541" x1="1.50582" y1="5.61052" x2="19.292" y2="5.61052" gradientUnits="userSpaceOnUse">
<stop offset="0.043" stop-color="#25FFD4"/>
<stop offset="0.874" stop-color="#55DDB9"/>
</linearGradient>
<linearGradient id="paint4_linear_22108_4541" x1="1.50582" y1="3.12434" x2="17.5288" y2="10.5643" gradientUnits="userSpaceOnUse">
<stop stop-color="#6AD6F9"/>
<stop offset="0.23" stop-color="#60E9D0"/>
<stop offset="0.651" stop-color="#6DE9BB"/>
<stop offset="0.994" stop-color="#ABE88E"/>
</linearGradient>
<linearGradient id="paint5_linear_22108_4541" x1="2.98896" y1="4.51603" x2="11.7006" y2="6.44353" gradientUnits="userSpaceOnUse">
<stop stop-color="white" stop-opacity="0"/>
<stop offset="0.459" stop-color="white"/>
<stop offset="1" stop-color="white" stop-opacity="0"/>
</linearGradient>
<linearGradient id="paint6_linear_22108_4541" x1="5.87662" y1="11.9788" x2="6.08237" y2="5.86911" gradientUnits="userSpaceOnUse">
<stop offset="0.205" stop-color="#063D3B" stop-opacity="0"/>
<stop offset="0.586" stop-color="#063D3B" stop-opacity="0.237"/>
<stop offset="0.872" stop-color="#063D3B" stop-opacity="0.75"/>
</linearGradient>
<linearGradient id="paint7_linear_22108_4541" x1="-0.596021" y1="11.3716" x2="6.84966" y2="12.7718" gradientUnits="userSpaceOnUse">
<stop stop-color="white" stop-opacity="0"/>
<stop offset="0.459" stop-color="white"/>
<stop offset="1" stop-color="white" stop-opacity="0"/>
</linearGradient>
<linearGradient id="paint8_linear_22108_4541" x1="4.78216" y1="17.9842" x2="3.33046" y2="10.8815" gradientUnits="userSpaceOnUse">
<stop offset="0.064" stop-color="#063D3B" stop-opacity="0"/>
<stop offset="0.17" stop-color="#063D3B" stop-opacity="0.135"/>
<stop offset="0.562" stop-color="#063D3B" stop-opacity="0.599"/>
<stop offset="0.85" stop-color="#063D3B" stop-opacity="0.9"/>
<stop offset="1" stop-color="#063D3B"/>
</linearGradient>
</defs>
</svg>
